X: 21162
T: WILLIE BREW'D A PECK O' MAUT
Q: "Cheerful"
%R: reel
B: "Edinburgh Repository of Music" v.1 p.116 #2 - p.117 #1
F: http://digital.nls.uk/special-collections-of-printed-music/pageturner.cfm?id=87776133
Z: 2015 John Chambers <jc:trillian.mit.edu>
M: C|
L: 1/8
K: G
B>c |\
d2g>e (ed)(cB) | e2(ag) (gf).e.d | g3e (edc).B | (e2A2) A2Bc |\
d2g>e (edc)B | e2(c'a) (gfe)d | g3e edcB | d2G2 G2 |]\
g>a |
b3g a3f | {a}gfed g3B | ~c3d edcB | e2A>B A2g>a |\
b3c' {b}a2fa | ({a}gf)ed {f}Hg3B |~c3e d2ga | b2g2 g2 H|]
